assets/ai/ai-preregistered-square.svg

<svg xmlns="http://www.w3.org/2000/svg" width="100%" height="100%" viewBox="-75.52 -43.52 599.04 599.04"><path d="M 48 32 C 21.5 32 0 53.5 0 80 L 0 432 C 0 458.5 21.5 480 48 480 L 400 480 C 426.5 480 448 458.5 448 432 L 448 80 C 448 53.5 426.5 32 400 32 L 48 32 z M 223.97852 96 C 233.32404 96 242.66971 98.043925 249.7207 102.13672 L 344.37891 156.77734 C 358.52222 164.9546 370.12695 185.0057 370.12695 201.34766 L 370.12695 310.65039 C 370.12695 326.99654 358.52222 347.05548 344.37891 355.22852 L 249.7207 409.88281 C 242.66971 413.9631 233.32404 416 223.97852 416 C 214.67493 416 205.32413 413.9631 198.27344 409.88281 L 103.61523 355.22852 C 89.450966 347.05548 77.873047 326.99654 77.873047 310.65039 L 77.873047 201.34766 C 77.873047 185.0057 89.450966 164.9546 103.61523 156.77734 L 198.27344 102.13672 C 205.32413 98.043925 214.67493 96 223.97852 96 z M 287.9707 189.14453 C 285.24311 189.14453 282.50968 190.17661 280.42383 192.24805 L 206.07812 266.625 C 201.90616 270.76371 195.14987 270.76371 191.01953 266.625 L 173.11914 248.73633 C 168.9888 244.58928 162.19088 244.58928 158.06055 248.73633 L 146.54102 260.23828 C 143.28682 263.50501 142.41068 271.15819 146.54102 275.29688 L 191.01953 319.75781 C 195.14987 323.89652 201.90616 323.89652 206.07812 319.75781 L 307.00195 218.82031 C 311.13227 214.67745 311.13227 207.89705 307.00195 203.75 L 295.48828 192.24805 C 293.42312 190.17658 290.69796 189.14453 287.9707 189.14453 z"/></svg>

<svg xmlns="http://www.w3.org/2000/svg" width="100%" height="100%" viewBox="-75.52 -43.52 599.04 599.04"><path d="M48 32C21.5 32 0 53.5 0 80v352c0 26.5 21.5 48 48 48h352c26.5 0 48-21.5 48-48V80c0-26.5-21.5-48-48-48H48zm175.979 64c9.345 0 18.69 2.044 25.742 6.137l94.658 54.64c14.143 8.178 25.748 28.229 25.748 44.57V310.65c0 16.347-11.605 36.405-25.748 44.579l-94.658 54.654c-7.051 4.08-16.397 6.117-25.742 6.117-9.304 0-18.655-2.037-25.706-6.117l-94.658-54.654c-14.164-8.174-25.742-28.232-25.742-44.579V201.348c0-16.342 11.578-36.393 25.742-44.57l94.658-54.641C205.324 98.044 214.675 96 223.98 96zm63.992 93.145a10.678 10.678 0 00-7.547 3.103l-74.346 74.377c-4.172 4.139-10.928 4.139-15.058 0l-17.9-17.889c-4.131-4.147-10.93-4.147-15.06 0l-11.519 11.502c-3.254 3.267-4.13 10.92 0 15.059l44.479 44.46c4.13 4.14 10.886 4.14 15.058 0L307.002 218.82c4.13-4.143 4.13-10.923 0-15.07l-11.514-11.502a10.577 10.577 0 00-7.517-3.103z"/></svg>
